packages/kronos-fna-icons/src/graph.svg

<svg version="1.1" xmlns="http://www.w3.org/2000/svg" width="20" height="20" viewBox="0 0 20 20">
<title>graph</title>
<path d="M0.759 0.5h-0.759v19h20v-0.762l-19.228-0.040-0.013-18.198zM10.769 1.292c0-0.438-0.345-0.792-0.769-0.792h-2.308c-0.425 0-0.769 0.354-0.769 0.792v15.833h3.846v-15.833zM6.154 6.042c0-0.437-0.345-0.792-0.769-0.792h-2.308c-0.425 0-0.769 0.355-0.769 0.792v11.083h3.846v-11.083zM15.385 10.792c0-0.438-0.345-0.792-0.769-0.792h-2.308c-0.425 0-0.769 0.354-0.769 0.792v6.333h3.846v-6.333zM19.231 14.75h-2.308c-0.425 0-0.769 0.354-0.769 0.792v1.583h3.846v-1.583c0-0.438-0.345-0.792-0.769-0.792v0z"></path>
</svg>

<svg viewBox="0 0 20 20" xmlns="http://www.w3.org/2000/svg">
    <title>graph</title>
    <path d="M.759.5H0v19h20v-.762l-19.228-.04L.759.5zm10.01.792A.78.78 0 0 0 10 .5H7.692a.78.78 0 0 0-.769.792v15.833h3.846V1.292zm-4.615 4.75a.781.781 0 0 0-.769-.792H3.077a.78.78 0 0 0-.769.792v11.083h3.846V6.042zm9.231 4.75a.78.78 0 0 0-.769-.792h-2.308a.78.78 0 0 0-.769.792v6.333h3.846v-6.333zm3.846 3.958h-2.308a.78.78 0 0 0-.769.792v1.583H20v-1.583a.78.78 0 0 0-.769-.792z" />
</svg>
